!!!OTL: Zhihuai xiaodiao
!!!ARE: Asia, China,ÿAnhui Bengbu
!! III, 521
!!!SCT: C2036
!!!YEM: Copyright 1995, estate of Helmut Schaffrath.
**kern
*ICvox
*Ivox
*M2/4
*k[f#c#g#]
*A:
{8ee
16ff#
16ee
16ee
16cc#
8b
=1
8ee
16ff#
16ee
16ee
16cc#
8b
=2
8ee
16ee
16f#
8a
8ee
=3
8cc#
16cc#
16b
4a}
=4
{8b
16a
16b
8.ee
16cc#
=5
8b
16cc#
16b
16a
16b
16g#
16f#
=6
8e
8f#
8b
8g#
=7
8f#
16g#
16f#
4e}
=8
{8b
16b
16b
8f#
8b
=9
16b
16a
16f#
16ff#
4e
=10
8b
16b
16b
16ee
16cc#
8b
=11
16a
16b
16a
16f#
4e}
=12
{8b
16a
16b
8ee
16ee
16cc#
=13
8b
8b
16a
16b
16g#
16f#
=14
8e
8f#
8g#
16g#
16e
=15
4f#
4e}
==
!!!AGN: Xiaodiao
!!!AMT: simple duple
!!!AIN: vox
!!!EED: Helmut Schaffrath
!!!EEV: 1.0
*-
